public/img/clients/tourismtoronto.svg

<svg width="200" height="100" viewBox="0 0 200 100" fill="none" xmlns="http://www.w3.org/2000/svg">
<path d="M36.872 59.1669C36.338 59.1669 35.976 58.8669 35.976 58.2129C35.976 56.1349 38.886 45.2529 38.886 45.2529H43.77L44.437 42.4229H39.484L40.854 37.1809H36.69L33.58 42.3879L30.382 43.1919L29.976 45.1499H32.806C32.806 45.1499 29.686 56.4199 29.686 59.2729C29.686 61.5179 31.106 62.9229 33.356 62.9229C36.074 62.9229 38.784 61.2109 40.46 59.0169L38.914 57.6799C38.247 58.4699 37.454 59.1699 36.872 59.1699V59.1669ZM54.865 41.9569C46.395 41.9569 42.175 49.5309 42.175 55.4529C42.175 59.8129 44.85 62.9499 50.12 62.9499C58.59 62.9499 62.81 55.0299 62.81 49.1099C62.81 44.7499 60.136 41.9559 54.865 41.9559V41.9569ZM55.673 53.0519C54.478 57.8019 52.429 60.9069 50.527 60.9069C48.49 60.9069 48.329 56.2649 49.521 51.5109C50.718 46.7589 52.763 43.8209 54.664 43.8209C56.704 43.8209 56.867 48.2959 55.674 53.0529L55.673 53.0519ZM122.995 59.1669C122.463 59.1669 122.16 58.8069 122.16 58.1529C122.16 55.4589 125.345 49.0299 125.345 45.3569C125.345 42.9699 123.785 41.9569 121.395 41.9569C118.089 41.9569 114.192 45.1319 112.225 51.2469H111.505C113.555 43.1209 109.798 38.7789 102.641 38.7789C100.121 38.7789 97.254 39.5019 95.069 40.3769C93.474 39.5409 91.102 38.7869 88.559 38.7869C81.276 38.7869 75.284 42.8829 72.467 51.2469L71.702 51.2449C71.702 51.2449 72.994 47.5279 72.994 45.1619C72.994 42.3349 71.374 41.9549 69.794 41.9549C67.77 41.9549 65.242 43.5309 63.942 44.9009L64.786 46.3709C66.736 45.0609 67.582 45.3209 67.582 47.7849C67.582 50.2499 65.945 55.6489 63.839 62.5679H70.479C70.479 62.5679 71.634 56.5379 73.036 53.4049C74.696 49.6899 77.029 48.4529 79.461 48.9819C81.141 43.4749 84.409 41.0589 88.697 41.0589C89.837 41.0589 91.167 41.3989 91.73 41.7049C86.357 44.2749 81.85 49.1349 81.85 55.4479C81.85 59.8739 84.99 62.9349 89.68 62.9349C96.95 62.9349 102.175 57.2499 102.175 50.6809C102.175 46.4859 100.291 43.8609 97.713 41.9709C98.949 41.4269 100.64 41.0159 102.16 41.0159C106.946 41.0159 108.003 45.2509 106.886 50.2419C106.349 52.6479 105.706 55.6479 103.598 62.5669H110.238C110.238 62.5669 111.154 57.6639 113.096 53.0329C114.238 50.3009 116.204 46.3579 117.811 46.3579C118.461 46.3579 118.726 46.7149 118.726 47.3679C118.726 49.7379 115.81 55.8759 115.81 59.2649C115.81 61.5079 117.23 62.9179 119.478 62.9179C122.198 62.9179 124.908 61.2059 126.582 59.0119L125.038 57.6749C124.37 58.4649 123.578 59.1649 122.995 59.1649V59.1669ZM90.16 60.9039C88.66 60.9039 88.23 58.9739 88.23 56.7739C88.23 51.8109 90.69 46.4179 94.415 43.7219C95.505 45.1319 95.947 46.8959 95.947 49.0389C95.947 54.9619 93.021 60.9029 90.159 60.9029L90.16 60.9039ZM135.255 59.1669C134.722 59.1669 134.359 58.8669 134.359 58.2129C134.359 56.1349 137.269 45.2529 137.269 45.2529H142.152L142.82 42.4229H137.865L139.238 37.1809H135.074L131.964 42.3879L128.764 43.1919L128.358 45.1499H131.188C131.188 45.1499 128.068 56.4199 128.068 59.2729C128.068 61.5179 129.488 62.9229 131.738 62.9229C134.455 62.9229 137.168 61.2109 138.842 59.0169L137.296 57.6799C136.628 58.4699 135.836 59.1699 135.256 59.1699L135.255 59.1669ZM153.245 41.9569C144.778 41.9569 140.559 49.5309 140.559 55.4529C140.559 59.8129 143.234 62.9499 148.502 62.9499C156.972 62.9499 161.192 55.0299 161.192 49.1099C161.192 44.7499 158.52 41.9559 153.245 41.9559V41.9569ZM154.055 53.0519C152.86 57.8019 150.812 60.9069 148.911 60.9069C146.874 60.9069 146.714 56.2649 147.905 51.5109C149.1 46.7589 151.147 43.8209 153.049 43.8209C155.086 43.8209 155.249 48.2959 154.055 53.0529V53.0519ZM178.075 40.8119L177.963 40.3279L177.315 40.0779C177.049 39.9779 176.985 39.8279 177.091 39.4419L177.721 37.1389L177.401 36.8189L175.364 37.2639C175.124 37.2989 174.964 37.1379 174.929 36.9919L174.734 36.2839L174.328 36.1759L172.438 38.5359L171.778 38.0609L172.966 33.1189L172.619 32.8709L171.773 33.3459C171.461 33.5319 171.208 33.4879 171.033 33.1959L169.611 30.6509H169.164L167.74 33.1949C167.566 33.4879 167.318 33.5319 167.004 33.3449L166.159 32.8709L165.809 33.1189L166.994 38.0609L166.336 38.5359L164.45 36.1759L164.04 36.2839L163.848 36.9919C163.811 37.1379 163.653 37.2989 163.41 37.2639L161.374 36.8199L161.054 37.1399L161.682 39.4419C161.788 39.8289 161.728 39.9779 161.46 40.0779L160.812 40.3279L160.698 40.8109L165.471 43.6409L164.737 44.9309L165.089 45.2309L168.844 44.1609C168.844 45.9689 167.864 47.5079 167.864 47.5079L169.104 48.5309C169.834 47.3639 170.15 45.6929 169.936 44.1609L173.686 45.2309L174.041 44.9309L173.304 43.6409L178.077 40.8109L178.075 40.8119Z" fill="black"/>
</svg>

<svg xmlns="http://www.w3.org/2000/svg" focusable="false" role="img" viewBox="0 0 200 100" fill="currentColor">
  <path d="M36.872 59.167c-.534 0-.896-.3-.896-.954 0-2.078 2.91-12.96 2.91-12.96h4.884l.667-2.83h-4.953l1.37-5.242H36.69l-3.11 5.207-3.198.804-.406 1.958h2.83s-3.12 11.27-3.12 14.123c0 2.245 1.42 3.65 3.67 3.65 2.718 0 5.428-1.712 7.104-3.906l-1.546-1.337c-.667.79-1.46 1.49-2.042 1.49v-.003zm17.993-17.21c-8.47 0-12.69 7.574-12.69 13.496 0 4.36 2.675 7.497 7.945 7.497 8.47 0 12.69-7.92 12.69-13.84 0-4.36-2.674-7.154-7.945-7.154v.001zm.808 11.095c-1.195 4.75-3.244 7.855-5.146 7.855-2.037 0-2.198-4.642-1.006-9.396 1.197-4.752 3.242-7.69 5.143-7.69 2.04 0 2.203 4.475 1.01 9.232l-.001-.001zm67.322 6.115c-.532 0-.835-.36-.835-1.014 0-2.694 3.185-9.123 3.185-12.796 0-2.387-1.56-3.4-3.95-3.4-3.306 0-7.203 3.175-9.17 9.29h-.72c2.05-8.126-1.707-12.468-8.864-12.468-2.52 0-5.387.723-7.572 1.598-1.595-.836-3.967-1.59-6.51-1.59-7.283 0-13.275 4.096-16.092 12.46l-.765-.002s1.292-3.717 1.292-6.083c0-2.827-1.62-3.207-3.2-3.207-2.024 0-4.552 1.576-5.852 2.946l.844 1.47c1.95-1.31 2.796-1.05 2.796 1.414 0 2.465-1.637 7.864-3.743 14.783h6.64s1.155-6.03 2.557-9.163c1.66-3.715 3.993-4.952 6.425-4.423 1.68-5.507 4.948-7.923 9.236-7.923 1.14 0 2.47.34 3.033.646-5.373 2.57-9.88 7.43-9.88 13.743 0 4.426 3.14 7.487 7.83 7.487 7.27 0 12.495-5.685 12.495-12.254 0-4.195-1.884-6.82-4.462-8.71 1.236-.544 2.927-.955 4.447-.955 4.786 0 5.843 4.235 4.726 9.226-.537 2.406-1.18 5.406-3.288 12.325h6.64s.916-4.903 2.858-9.534c1.142-2.732 3.108-6.675 4.715-6.675.65 0 .915.357.915 1.01 0 2.37-2.916 8.508-2.916 11.897 0 2.243 1.42 3.653 3.668 3.653 2.72 0 5.43-1.712 7.104-3.906l-1.544-1.337c-.668.79-1.46 1.49-2.043 1.49v.002zM90.16 60.904c-1.5 0-1.93-1.93-1.93-4.13 0-4.963 2.46-10.356 6.185-13.052 1.09 1.41 1.532 3.174 1.532 5.317 0 5.923-2.926 11.864-5.788 11.864l.001.001zm45.095-1.737c-.533 0-.896-.3-.896-.954 0-2.078 2.91-12.96 2.91-12.96h4.883l.668-2.83h-4.955l1.373-5.242h-4.164l-3.11 5.207-3.2.804-.406 1.958h2.83s-3.12 11.27-3.12 14.123c0 2.245 1.42 3.65 3.67 3.65 2.717 0 5.43-1.712 7.104-3.906l-1.546-1.337c-.668.79-1.46 1.49-2.04 1.49l-.001-.003zm17.99-17.21c-8.467 0-12.686 7.574-12.686 13.496 0 4.36 2.675 7.497 7.943 7.497 8.47 0 12.69-7.92 12.69-13.84 0-4.36-2.672-7.154-7.947-7.154v.001zm.81 11.095c-1.195 4.75-3.243 7.855-5.144 7.855-2.037 0-2.197-4.642-1.006-9.396 1.195-4.752 3.242-7.69 5.144-7.69 2.037 0 2.2 4.475 1.006 9.232v-.001zm24.02-12.24l-.112-.484-.648-.25c-.266-.1-.33-.25-.224-.636l.63-2.303-.32-.32-2.037.445a.38.38 0 01-.435-.272l-.195-.708-.406-.108-1.89 2.36-.66-.475 1.188-4.942-.347-.248-.846.475c-.312.186-.565.142-.74-.15l-1.422-2.545h-.447l-1.424 2.544c-.174.293-.422.337-.736.15l-.845-.474-.35.248 1.185 4.942-.658.475-1.886-2.36-.41.108-.192.708a.383.383 0 01-.438.272l-2.036-.444-.32.32.628 2.302c.106.387.046.536-.222.636l-.648.25-.114.483 4.773 2.83-.734 1.29.352.3 3.755-1.07c0 1.808-.98 3.347-.98 3.347l1.24 1.023c.73-1.167 1.046-2.838.832-4.37l3.75 1.07.355-.3-.737-1.29 4.773-2.83-.002.001z"/>
</svg>
